Obsidian-SemiLight/actions/22s/format-font-size-less.svg

<svg viewBox="0 0 22 22" xmlns="http://www.w3.org/2000/svg"><path d="m8.2167969 3-5.2167969 14h1.6875l1.6679688-4.429688h5.5625002l.148437.429688h1.666016l-3.521484-10zm1.015625 1.6113281 2.1289061 6.6738279h-4.4882811zm5.7675781 8.1816409v4.292969l-2.292969-2.292969-.707031.707031 3.292969 3.292969.207031.207031.207031-.207031 3.292969-3.292969-.707031-.707031-2.292969 2.292969v-4.292969z" fill="#4d4d4d"/></svg>

<svg xmlns="http://www.w3.org/2000/svg" viewBox="0 0 22 22">
  <defs id="defs3051">
    <style type="text/css" id="current-color-scheme">
      .ColorScheme-Text {
        color:#4d4d4d;
      }
      </style>
  </defs>
 <path 
    style="fill:currentColor;fill-opacity:1;stroke:none" 
    d="M 8.2167969 3 L 3 17 L 4.6875 17 L 6.3554688 12.570312 L 11.917969 12.570312 L 12.066406 13 L 13.732422 13 L 10.210938 3 L 8.2167969 3 z M 9.2324219 4.6113281 L 11.361328 11.285156 L 6.8730469 11.285156 L 9.2324219 4.6113281 z M 15 12.792969 L 15 17.085938 L 12.707031 14.792969 L 12 15.5 L 15.292969 18.792969 L 15.5 19 L 15.707031 18.792969 L 19 15.5 L 18.292969 14.792969 L 16 17.085938 L 16 12.792969 L 15 12.792969 z "
    class="ColorScheme-Text"
    />  
</svg>
